!! 00000] TT[WS
!!!OTL: Sibao langong
!!!ARE: Asia, China, Shanxi Xingxian
!! Ethnic Group: Han
!! WII, 45 (1)
!!!SCT: J0459
!!!YEM: Copyright 1995, estate of Helmut Schaffrath.
**kern
*ICvox
*Ivox
*M2/4
*k[b-e-]
*B-:
{8cc
16cc
16dd
4cc
=1
16dd
16ff
16dd
16cc
4b-
=2
16b-
16cc
16dd
16ff
16cc
16dd
16cc
16b-
=3
8.g
16f
4d}
=4
{8.f
16g
16b-
16dd
16cc
16b-
=5
16g
16b-
16d
16f
8g
8g}
=6
{8g
8dd
16cc
16dd
16cc
16b-
=7
16g
16b-
16f
16g
8b-
16a
16g
=8
8f
16e-
16d
4c}
==
!!!AGN: Xiaodiao. Qingge
!!!ONB: ESAC (Essen Associative Code) Database: CHINA
!!!AMT: simple duple
!!!AIN: vox
!!!EED: Helmut Schaffrath
!!!EEV: 1.0
*-
